symbols/web/cookie/materialsymbolsoutlined/cookie_wght100_40px.svg

<svg xmlns="http://www.w3.org/2000/svg" height="40" width="40"><path d="M17.5 16.292q.875 0 1.5-.646t.625-1.479q0-.875-.625-1.5t-1.5-.625q-.875 0-1.5.625t-.625 1.5q0 .875.646 1.5t1.479.625Zm-3.333 8.333q.875 0 1.5-.646t.625-1.479q0-.875-.625-1.5t-1.5-.625q-.875 0-1.5.625t-.625 1.5q0 .875.646 1.5.645.625 1.479.625ZM25 26.25q.542 0 .896-.375T26.25 25q0-.542-.354-.896T25 23.75q-.5 0-.875.354T23.75 25q0 .5.375.875t.875.375Zm-5 9.333q-3.25 0-6.083-1.229-2.834-1.229-4.938-3.333-2.104-2.104-3.333-4.938Q4.417 23.25 4.417 20q0-3.583 1.5-6.646 1.5-3.062 3.979-5.208Q12.375 6 15.562 5q3.188-1 6.605-.5 0 1.917.541 3.396.542 1.479 1.604 2.542 1.063 1.062 2.626 1.666 1.562.604 3.562.729-.25 2.375 1.333 4.25 1.584 1.875 3.75 2.292 0 3.292-1.25 6.25t-3.375 5.167q-2.125 2.208-4.937 3.5-2.813 1.291-6.021 1.291Zm0-1q5.667 0 9.896-4.104 4.229-4.104 4.646-10.312-2.25-.875-3.563-2.521-1.312-1.646-1.437-4.021-3.542-.25-5.854-2.417-2.313-2.166-2.396-5.791-3.084-.292-5.959.729-2.875 1.021-5.062 3-2.188 1.979-3.521 4.771Q5.417 16.708 5.417 20q0 6.042 4.271 10.312 4.27 4.271 10.312 4.271Zm0-14.958Z"/></svg>

<svg xmlns="http://www.w3.org/2000/svg" height="40" width="40"><path d="M17.5 16.292Q18.375 16.292 19 15.646Q19.625 15 19.625 14.167Q19.625 13.292 19 12.667Q18.375 12.042 17.5 12.042Q16.625 12.042 16 12.667Q15.375 13.292 15.375 14.167Q15.375 15.042 16.021 15.667Q16.667 16.292 17.5 16.292ZM14.167 24.625Q15.042 24.625 15.667 23.979Q16.292 23.333 16.292 22.5Q16.292 21.625 15.667 21Q15.042 20.375 14.167 20.375Q13.292 20.375 12.667 21Q12.042 21.625 12.042 22.5Q12.042 23.375 12.688 24Q13.333 24.625 14.167 24.625ZM25 26.25Q25.542 26.25 25.896 25.875Q26.25 25.5 26.25 25Q26.25 24.458 25.896 24.104Q25.542 23.75 25 23.75Q24.5 23.75 24.125 24.104Q23.75 24.458 23.75 25Q23.75 25.5 24.125 25.875Q24.5 26.25 25 26.25ZM20 35.583Q16.75 35.583 13.917 34.354Q11.083 33.125 8.979 31.021Q6.875 28.917 5.646 26.083Q4.417 23.25 4.417 20Q4.417 16.417 5.917 13.354Q7.417 10.292 9.896 8.146Q12.375 6 15.562 5Q18.75 4 22.167 4.5Q22.167 6.417 22.708 7.896Q23.25 9.375 24.312 10.438Q25.375 11.5 26.938 12.104Q28.5 12.708 30.5 12.833Q30.25 15.208 31.833 17.083Q33.417 18.958 35.583 19.375Q35.583 22.667 34.333 25.625Q33.083 28.583 30.958 30.792Q28.833 33 26.021 34.292Q23.208 35.583 20 35.583ZM20 34.583Q25.667 34.583 29.896 30.479Q34.125 26.375 34.542 20.167Q32.292 19.292 30.979 17.646Q29.667 16 29.542 13.625Q26 13.375 23.688 11.208Q21.375 9.042 21.292 5.417Q18.208 5.125 15.333 6.146Q12.458 7.167 10.271 9.146Q8.083 11.125 6.75 13.917Q5.417 16.708 5.417 20Q5.417 26.042 9.688 30.312Q13.958 34.583 20 34.583ZM20 19.625Q20 19.625 20 19.625Q20 19.625 20 19.625Q20 19.625 20 19.625Q20 19.625 20 19.625Q20 19.625 20 19.625Q20 19.625 20 19.625Q20 19.625 20 19.625Q20 19.625 20 19.625Q20 19.625 20 19.625Q20 19.625 20 19.625Q20 19.625 20 19.625Q20 19.625 20 19.625Z"/></svg>
